icons/linear-ele-office-folder-close-delete.svg

<svg xmlns="http://www.w3.org/2000/svg" width="32px" height="32px" viewBox="0 0 32 32" version="1.1">
    <title>linear-ele-office-folder-close-delete</title>
    <g id="linear-ele-office-folder-close-delete" stroke-width="1" fill-rule="evenodd">
        <path d="M12,4 C12.2652165,4 12.5195704,4.10535684 12.7071068,4.29289322 L16.415,8 L29,8 C29.5128358,8 29.9355072,8.38604019 29.9932723,8.88337887 L30,9 L30,27 C30,27.5522847 29.5522847,28 29,28 L3,28 C2.44771525,28 2,27.5522847 2,27 L2,5 C2,4.44771525 2.44771525,4 3,4 L12,4 Z M11.585,6 L4,6 L4,26 L28,26 L28,10 L16,10 C15.7789863,10 15.565516,9.92683553 15.3919705,9.79391937 L15.2928932,9.70710678 L11.585,6 Z M13.7071068,14.2928932 L16,16.585 L18.2928932,14.2928932 C18.6834175,13.9023689 19.3165825,13.9023689 19.7071068,14.2928932 C20.0976311,14.6834175 20.0976311,15.3165825 19.7071068,15.7071068 L17.415,18 L19.7071068,20.2928932 C20.0976311,20.6834175 20.0976311,21.3165825 19.7071068,21.7071068 C19.3165825,22.0976311 18.6834175,22.0976311 18.2928932,21.7071068 L16,19.415 L13.7071068,21.7071068 C13.3165825,22.0976311 12.6834175,22.0976311 12.2928932,21.7071068 C11.9023689,21.3165825 11.9023689,20.6834175 12.2928932,20.2928932 L14.585,18 L12.2928932,15.7071068 C11.9023689,15.3165825 11.9023689,14.6834175 12.2928932,14.2928932 C12.6834175,13.9023689 13.3165825,13.9023689 13.7071068,14.2928932 Z" id="&#24418;&#29366;" fill-rule="nonzero" />
    </g>
</svg>

<svg xmlns="http://www.w3.org/2000/svg" viewBox="0 0 32 32"><path fill="currentColor" d="M12 4a1 1 0 0 1 .707.293L16.415 8H29a1 1 0 0 1 .993.883L30 9v18a1 1 0 0 1-1 1H3a1 1 0 0 1-1-1V5a1 1 0 0 1 1-1zm-.415 2H4v20h24V10H16a1 1 0 0 1-.608-.206l-.1-.087zm2.122 8.293L16 16.585l2.293-2.292a1 1 0 0 1 1.414 1.414L17.415 18l2.292 2.293a1 1 0 0 1-1.414 1.414L16 19.415l-2.293 2.292a1 1 0 0 1-1.414-1.414L14.585 18l-2.292-2.293a1 1 0 0 1 1.414-1.414"/></svg>
